assets/svg/icon_code4.svg

<svg width="24" height="24" viewBox="0 0 24 24" fill="none" xmlns="http://www.w3.org/2000/svg">
<path d="M9.35567 12.878C9.35567 13.363 8.96256 13.7561 8.47764 13.7561C7.99272 13.7561 7.59961 13.363 7.59961 12.878C7.59961 12.3931 7.99272 12 8.47764 12C8.96256 12 9.35567 12.3931 9.35567 12.878Z" fill="#494949"/>
<path d="M12.8674 12.878C12.8674 13.363 12.4743 13.7561 11.9894 13.7561C11.5044 13.7561 11.1113 13.363 11.1113 12.878C11.1113 12.3931 11.5044 12 11.9894 12C12.4743 12 12.8674 12.3931 12.8674 12.878Z" fill="#494949"/>
<path d="M16.3791 12.878C16.3791 13.363 15.986 13.7561 15.5011 13.7561C15.0162 13.7561 14.623 13.363 14.623 12.878C14.623 12.3931 15.0162 12 15.5011 12C15.986 12 16.3791 12.3931 16.3791 12.878Z" fill="#494949"/>
<path d="M10 6.59961L10.5881 7.06509C10.8155 6.77774 10.802 6.3681 10.5561 6.09637L10 6.59961ZM7.5 6.61201L7.51669 7.36183L7.5 6.61201ZM8.65611 3.99676C8.37818 3.68964 7.90389 3.66596 7.59676 3.94389C7.28964 4.22182 7.26596 4.69611 7.54389 5.00324L8.65611 3.99676ZM7.51193 8.53452C7.25485 8.8593 7.30974 9.33099 7.63452 9.58807C7.9593 9.84515 8.43099 9.79026 8.68807 9.46548L7.51193 8.53452ZM15.7615 6.60205L15.7666 5.85205H15.7615V6.60205ZM6.96888 20.121C7.38274 20.1382 7.73217 19.8166 7.74935 19.4028C7.76654 18.9889 7.44498 18.6395 7.03112 18.6223L6.96888 20.121ZM11.5 18.6496C11.0858 18.6496 10.75 18.9854 10.75 19.3996C10.75 19.8138 11.0858 20.1496 11.5 20.1496V18.6496ZM14.5 5.85205C14.0858 5.85205 13.75 6.18783 13.75 6.60205C13.75 7.01626 14.0858 7.35205 14.5 7.35205V5.85205ZM2.25 12.9996C2.25 14.4869 2.24841 15.6778 2.37385 16.6108C2.50218 17.5654 2.77572 18.3615 3.40693 18.9927L4.46759 17.932C4.16154 17.626 3.96645 17.1992 3.86047 16.4109C3.75159 15.6011 3.75 14.5293 3.75 12.9996H2.25ZM20.25 12.9996C20.25 14.5293 20.2484 15.6011 20.1395 16.4109C20.0336 17.1992 19.8385 17.626 19.5324 17.932L20.5931 18.9927C21.2243 18.3615 21.4978 17.5654 21.6262 16.6108C21.7516 15.6778 21.75 14.4869 21.75 12.9996H20.25ZM14.6 20.1496C16.0873 20.1496 17.2782 20.1512 18.2112 20.0258C19.1658 19.8974 19.9619 19.6239 20.5931 18.9927L19.5324 17.932C19.2264 18.2381 18.7996 18.4332 18.0113 18.5391C17.2015 18.648 16.1297 18.6496 14.6 18.6496V20.1496ZM21.75 12.9996C21.75 11.5123 21.7516 10.3214 21.6262 9.3884C21.4978 8.43383 21.2243 7.63774 20.5931 7.00654L19.5324 8.0672C19.8385 8.37325 20.0336 8.80004 20.1395 9.58828C20.2484 10.3981 20.25 11.4699 20.25 12.9996H21.75ZM3.75 12.9996C3.75 11.4699 3.75159 10.3981 3.86047 9.58827C3.96645 8.80004 4.16154 8.37325 4.46759 8.0672L3.40693 7.00654C2.77572 7.63774 2.50218 8.43383 2.37385 9.3884C2.24841 10.3214 2.25 11.5123 2.25 12.9996H3.75ZM10 5.84961C9.29138 5.84961 8.05115 5.84956 7.48331 5.8622L7.51669 7.36183C8.06327 7.34966 9.28144 7.34961 10 7.34961V5.84961ZM7.48331 5.8622C5.71387 5.90158 4.36097 6.0525 3.40693 7.00654L4.46759 8.0672C4.9447 7.59009 5.68889 7.40251 7.51669 7.36183L7.48331 5.8622ZM10.5561 6.09637L8.65611 3.99676L7.54389 5.00324L9.44389 7.10285L10.5561 6.09637ZM9.41193 6.13413L7.51193 8.53452L8.68807 9.46548L10.5881 7.06509L9.41193 6.13413ZM15.7564 7.35203C16.8907 7.3597 17.7004 7.39246 18.317 7.50901C18.9125 7.62154 19.2668 7.80163 19.5324 8.0672L20.5931 7.00654C20.0503 6.46373 19.3838 6.18406 18.5956 6.0351C17.8286 5.89015 16.8919 5.85968 15.7666 5.85206L15.7564 7.35203ZM7.03112 18.6223C5.54242 18.5605 4.89345 18.3579 4.46759 17.932L3.40693 18.9927C4.27414 19.8599 5.46189 20.0584 6.96888 20.121L7.03112 18.6223ZM14.6 18.6496H11.5V20.1496H14.6V18.6496ZM15.7615 5.85205H14.5V7.35205H15.7615V5.85205Z" fill="#494949"/>
</svg>

<svg xmlns="http://www.w3.org/2000/svg" width="24" height="24" fill="none"><path fill="#494949" d="M9.356 12.878a.878.878 0 1 1-1.756 0 .878.878 0 0 1 1.756 0M12.867 12.878a.878.878 0 1 1-1.756 0 .878.878 0 0 1 1.756 0M16.38 12.878a.878.878 0 1 1-1.757 0 .878.878 0 0 1 1.756 0M10 6.6l.588.465a.75.75 0 0 0-.032-.969zm-2.5.012.017.75zm1.156-2.615a.75.75 0 0 0-1.112 1.006zM7.512 8.535a.75.75 0 0 0 1.176.93zm8.25-1.933.005-.75h-.005zM6.968 20.121a.75.75 0 1 0 .062-1.499zM11.5 18.65a.75.75 0 0 0 0 1.5zm3-12.798a.75.75 0 0 0 0 1.5zM2.25 13c0 1.487-.002 2.678.124 3.61.128.955.402 1.752 1.033 2.383l1.06-1.061c-.305-.306-.5-.733-.607-1.521-.108-.81-.11-1.882-.11-3.411zm18 0c0 1.53-.002 2.601-.11 3.41-.106.79-.302 1.216-.608 1.522l1.061 1.06c.631-.63.905-1.427 1.033-2.381.126-.933.124-2.124.124-3.611zm-5.65 7.15c1.487 0 2.678.001 3.611-.124.955-.129 1.75-.402 2.382-1.033l-1.06-1.061c-.307.306-.733.501-1.522.607-.81.109-1.881.11-3.411.11zM21.75 13c0-1.488.002-2.679-.124-3.612-.128-.954-.402-1.75-1.033-2.381l-1.06 1.06c.305.306.5.733.607 1.521.108.81.11 1.882.11 3.412zm-18 0c0-1.53.002-2.602.11-3.412.106-.788.302-1.215.608-1.52L3.407 7.006c-.631.63-.905 1.427-1.033 2.381-.126.933-.124 2.124-.124 3.612zM10 5.85c-.709 0-1.949 0-2.517.012l.034 1.5C8.063 7.35 9.28 7.35 10 7.35zm-2.517.012c-1.77.04-3.122.19-4.076 1.145l1.06 1.06c.478-.477 1.222-.664 3.05-.705zm3.073.234-1.9-2.1-1.112 1.007 1.9 2.1zm-1.144.038-1.9 2.4 1.176.931 1.9-2.4zm6.344 1.218c1.135.008 1.944.04 2.561.157.596.113.95.293 1.215.558l1.061-1.06c-.543-.543-1.21-.823-1.997-.972-.767-.145-1.704-.175-2.83-.183zm-8.725 11.27c-1.489-.061-2.138-.264-2.563-.69l-1.061 1.06c.867.868 2.055 1.066 3.562 1.129zm7.569.028h-3.1v1.5h3.1zm1.162-12.798H14.5v1.5h1.261z"/></svg>
